icons/op-printer-16.svg

<svg width="16" height="16" viewBox="0 0 16 16" fill="none" xmlns="http://www.w3.org/2000/svg">
<path d="M11.2227 0C11.8486 0 12.4498 0.248934 12.8926 0.691406C13.3353 1.13412 13.5839 1.73525 13.584 2.36133V3.22266H13.6396C14.2657 3.22266 14.8668 3.47152 15.3096 3.91406C15.7522 4.35677 16.0009 4.95794 16.001 5.58398V10.417C16.001 11.0432 15.7523 11.6441 15.3096 12.0869C14.8668 12.5297 14.2659 12.7783 13.6396 12.7783H12.7783V13.6396C12.7783 14.2659 12.5297 14.8668 12.0869 15.3096C11.6441 15.7523 11.0432 16.001 10.417 16.001H5.58398C4.95795 16.0009 4.35676 15.7522 3.91406 15.3096C3.47152 14.8668 3.22266 14.2657 3.22266 13.6396V12.7783H2.36133C1.73526 12.7782 1.13411 12.5296 0.691406 12.0869C0.24895 11.6442 0 11.043 0 10.417V5.58398C0.000113164 4.95796 0.248764 4.35677 0.691406 3.91406C1.13411 3.47135 1.73526 3.22278 2.36133 3.22266H2.41699V2.36133C2.41711 1.73525 2.66569 1.13412 3.1084 0.691406C3.5511 0.248746 4.15229 0.000121214 4.77832 0H11.2227ZM5.58398 9.55566C5.35574 9.55579 5.13601 9.64719 4.97461 9.80859C4.81339 9.9699 4.72287 10.1889 4.72266 10.417V13.6396C4.72266 13.8679 4.81338 14.0876 4.97461 14.249C5.13601 14.4104 5.35577 14.5009 5.58398 14.501H10.417C10.6453 14.501 10.8649 14.4105 11.0264 14.249C11.1879 14.0875 11.2783 13.8681 11.2783 13.6396V10.417C11.2781 10.1889 11.1876 9.96991 11.0264 9.80859C10.8649 9.64736 10.6452 9.55566 10.417 9.55566H5.58398ZM2.36133 4.72266C2.13308 4.72278 1.91336 4.81321 1.75195 4.97461C1.59062 5.13601 1.50011 5.35578 1.5 5.58398V10.417C1.5 10.6451 1.5908 10.8649 1.75195 11.0264C1.91336 11.1878 2.13308 11.2782 2.36133 11.2783H3.22266V10.417C3.22287 9.79112 3.47154 9.19066 3.91406 8.74805C4.35677 8.30534 4.95791 8.05579 5.58398 8.05566H10.417C11.043 8.05566 11.6441 8.30551 12.0869 8.74805C12.5295 9.19066 12.7781 9.7911 12.7783 10.417V11.2783H13.6396C13.8681 11.2783 14.0875 11.1879 14.249 11.0264C14.4105 10.8649 14.501 10.6454 14.501 10.417V5.58398C14.5009 5.35576 14.4104 5.13601 14.249 4.97461C14.0876 4.81338 13.8679 4.72266 13.6396 4.72266H2.36133ZM4.77832 5.63965C5.19227 5.63979 5.52809 5.97572 5.52832 6.38965C5.52813 6.80361 5.1923 7.13951 4.77832 7.13965H3.97266C3.55877 7.1394 3.22285 6.80354 3.22266 6.38965C3.22289 5.97578 3.5588 5.6399 3.97266 5.63965H4.77832ZM4.77832 1.5C4.55011 1.50012 4.33034 1.5906 4.16895 1.75195C4.00754 1.91336 3.9171 2.13308 3.91699 2.36133V3.22266H12.084V2.36133C12.0839 2.13307 11.9934 1.91336 11.832 1.75195C11.6706 1.59079 11.4508 1.5 11.2227 1.5H4.77832Z" fill="#636C76"/>
</svg>

<svg xmlns="http://www.w3.org/2000/svg" width="16" height="16" viewBox="0 0 16 16"><path d="M11.223 0c.626 0 1.227.249 1.67.691.442.443.691 1.044.691 1.67v.862h.056c.626 0 1.227.249 1.67.691.442.443.691 1.044.691 1.67v4.833a2.361 2.361 0 0 1-2.361 2.361h-.862v.862a2.361 2.361 0 0 1-2.361 2.361H5.584a2.366 2.366 0 0 1-1.67-.691 2.366 2.366 0 0 1-.691-1.67v-.862h-.862A2.361 2.361 0 0 1 0 10.417V5.584a2.361 2.361 0 0 1 2.361-2.361h.056v-.862c0-.626.249-1.227.691-1.67A2.366 2.366 0 0 1 4.778 0h6.445ZM5.584 9.556a.86.86 0 0 0-.861.861v3.223a.859.859 0 0 0 .861.861h4.833a.859.859 0 0 0 .861-.861v-3.223a.86.86 0 0 0-.861-.861H5.584ZM2.361 4.723a.859.859 0 0 0-.861.861v4.833a.863.863 0 0 0 .861.861h.862v-.861a2.363 2.363 0 0 1 2.361-2.361h4.833a2.36 2.36 0 0 1 2.361 2.361v.861h.862a.859.859 0 0 0 .861-.861V5.584a.863.863 0 0 0-.861-.861H2.361Zm2.417.917a.75.75 0 0 1 0 1.5h-.805a.75.75 0 0 1 0-1.5h.805Zm0-4.14a.863.863 0 0 0-.861.861v.862h8.167v-.862a.863.863 0 0 0-.861-.861H4.778Z"/></svg>
